X:2
%
T:Miss Margaret Graham of Gartmore's Strathspey
M:4/4
L:1/8
C:Robert Macintosh
B:Shepherd - A Collection of Strathspey Reels &c. (1793, p. 1)
K:G
TG<GB>G d>GB<g|TG<GB>G TF>A(G/F/).E/.D/|TG>GB>G d>GB>d|
c>aB>g TFA (G/F/).E/.D/:||:G>gd>g B>Gd>B|G>gB>g TF>A (G/F/).E/.D/|
G>gd>g B>Gd>B|1 c>eB<d TFA (G/F/).E/.D/:|2 c>aB>g TFA (G/F/).E/.D/||

